X:1
T:Madam Director
T:Madam Director
T:Griffin McElroy
C:Griffin McElroy
%%score 1 2
L:1/8
M:6/8
K:F
V:1 alto nm="Viola" snm="Vla."
V:2 alto nm="Viola" snm="Vla."
V:1
 F6 | E4 G2- | G2 F4- | F2 z4 | z2 A4 | F3/2 G2 A3/2c- | c3 B3- | B A4- A- | A z2 B3- | B z4 F- | %10
 F4- FE- | E3 G3- | G F4- F- | F z4 A- | A3 F3/2G3/2- | G<A e4 | c4 A2- | A4 z2 | B4 z2 | z4 F2- | %20
 F4 E2- | E2 A4 | B6 | z6 | c4 F>G- | G3/2A3/2 f3- | f e4 c- | c4 z2 | e4 d2- | d2 f4 | z4 e2- | %31
 e2 g4 | f4 z2 | z6 | z6 | a4 f>g- | g3/2a3/2 e'3- | e' c'4 a- | a3- a2 z | z b4 g- | g3 f3- | %41
 f2 z2 e2- | e2 g4 | f6 | z6 | a4 f>g- | g3/2a3/2 e'3- | e' c'4 a- | a3- a2 z | z b4 g- | g3 f3- | %51
 f2 z2 e2- | e2 g4 | B6 | z6 | z6 | z2 A4 | F3/2 G2 A3/2e- | e3 c3- | c A2- A3- | A z2 B3- | %61
 B2 z4 |] %62
V:2
 z6 | z6 | z6 | z6 | z6 | z6 | z6 | z6 | z6 | z z4 C- | C4- CB,- | B,3 D3- | D C4- C- | C z4 E- | %14
 E3 C3/2D3/2- | D<E c4 | A4 F2- | F4 z2 | G4 z2 | z4 C2- | C4 B,2- | B,2 E4 | F6 | z6 | A4 D>E- | %25
 E3/2F3/2 d3- | d c4 A- | A4 z2 | c4 B2- | B2 d4 | z4 c2- | c2 e4 | d4 z2 | z6 | z6 | A4 F>G- | %36
 G3/2A3/2 e3- | e c4 A- | A3- A2 z | z B4 G- | G3 F3- | F2 z2 E2- | E2 G4 | F6 | z6 | A4 F>G- | %46
 G3/2A3/2 e3- | e c4 A- | A3- A2 z | z B4 G- | G3 F3- | F2 z2 E2- | E2 G4 | B,6 | z6 | z6 | %56
 z2 A,4 | F,3/2 G,2 A,3/2E- | E3 C3- | C A,2- A,3- | A, z2 B,3- | B,2 z4 |] %62

